X: 05013
T: Bob's Own
C: Bob McQuillen 26 May 81
B: Bob's Note Book 5 #13
%R: jig
Z: 2021 John Chambers <jc:trillian.mit.edu>
M: 6/8
L: 1/8
K: A
A2B \
| c2c cdc | A2E EAB | cde efe | e2c BAB |\
| c2c cdc | A2E ECE | FGA B2c | A3 :|
|: c2d \
| e2a faf | e2c c2d | eaa faf | ecA Bcd |\
| e2a faf | e2c cAB | cec B2A | A3 :|
% %begintext align
% % [No comment on this tune.]
% %endtext

%%sep 1 1 500

%%sep 1 1 500

